X:1
T:This Is My Father's World
T:Text: Maltbie D. Babcock (1858-1901) Tune: Franklin L. Sheppard (1852-1930)
T:66 86D TERRA BEATA www.hymnary.org/text/this_is_my_fathers_world_and_to_my
T:This Is My Father's World
T:This hymn is in the public domain. You may freely use this score for personal and congregational worship. If you reproduce the score, please credit Hymnary.org as the source. 
T:This hymn is in the public domain. You may freely use this score for personal and congregational worship. If you reproduce the score, please credit Hymnary.org as the source. 
Z:This hymn is in the public domain. You may freely use this score for personal and congregational worship. If you reproduce the score, please credit Hymnary.org as the source.
%%score ( 1 2 ) ( 3 4 )
L:1/8
M:4/4
K:Eb
V:1 treble nm="Piano" snm="Pno."
V:2 treble 
V:3 bass nm="Piano" snm="Pno."
V:4 bass 
V:1
 EF | [EG]2 [EB]2 [DG]2 [DF]2 | E6 FG | [EA]2 [Ec]2 [EB]2 [EG]2 | [DF]6 [Dc]2 | %5
w: 3~This _|is my Fa- ther's|world: O _|let me ne'er for-|get That|
w: 1~This _|is my Fa- ther's|world, And _|to my list'- ning|ears All|
w: 2~This _|is my Fa- ther's|world: The _|birds their ca- rols|raise, The|
 [EB]2 [EG]2 [DG]2 FE | [DG]2 [DF]2 E2 B,2 | EF [EG]2 [DB]2 FG | E6 | [DB]2 | %10
w: though the wrong seems _|oft so strong, God|is _ the Rul- er _|yet.|This|
w: na- ture sings, and _|round me rings The|mu- * sic of the _|spheres.|This|
w: mor- ning light, the _|li- ly white, De-|clare _ their Ma- ker's _|praise.|This|
 [Ee]2 [GB]2 [Ac]2 [Ad]2 | [Ge]6 ed | [Ec]2 [Ee]2 [Ed]2 [Ec]2 | [EB]6 [Dc]-[Dc] | %14
w: is my Fa- ther's|world: Why _|should my heart be|sad? The _|
w: is my Fa- ther's|world; I _|rest me in the|thought Of _|
w: is my Fa- ther's|world: He _|shines in all that's|fair; In the|
 [EB]2 [EG]2 [DG]2 (([DF]E)) | [DG]2 [DF]2 E2 B,2 | EF [EG]2 [DB]2 ([D-F][DG]) | E6 |] %18
w: Lord is King.- let the|hea- ven's ring! God|reigns; _ let earth be _|glad!|
w: rocks and trees, of _|skies and seas— His|hand _ the won- ders _|wrought.|
w: rust- ling grass I _|hear Him pass, He|speaks _ to me ev- ery-|where.|
 [CE]4 [B,E]4 |] %19
w: A- men.|
w: |
w: |
V:2
 B,2 | x8 | E6 E2 | x8 | x8 | x6 DE | x4 E2 B,2 | E2 x4 D2 | E6 | x2 | x8 | x6 E2 | x8 | x8 | %14
 x7 E | x4 E2 B,2 | E2 x6 | E6 |] x8 |] %19
V:3
 G,A, | [E,B,]2 [E,G,]2 [B,,B,]2 [B,,A,]2 | [E,G,]6 A,B, | [E,C]2 [E,A,]2 [E,G,]2 [E,B,]2 | %4
 [B,,B,]6 [B,,A,]2 | [E,G,]2 [E,B,]2 [B,,B,]2 [B,,A,]2 | [B,,B,]2 [B,,A,]2 [E,G,]2 [E,G,]2 | %7
 G,A, [E,B,]2 [B,,B,]2 [B,,A,]2 | [E,G,]6 | B,A, | [E,G,]2 [E,B,]2 A,2 [F,B,]2 | [E,B,]6 [G,B,]2 | %12
 A,2 [A,C]2 B,2 A,2 | [E,G,]6 [B,,A,]-[B,,A,] | [E,G,]2 [E,B,]2 [B,,B,]2 ([B,,-A,][B,,G,]) | %15
 [B,,B,]2 [B,,A,]2 [E,G,]2 [B,,B,]2 | G,A, [E,B,]2 [B,,B,]2 ([B,,-A,][B,,B,]) | [E,G,]6 |] %18
 [A,,A,]4 [E,G,]4 |] %19
V:4
 E,2 | x8 | x6 E,2 | x8 | x8 | x8 | x8 | E,2 x6 | x6 | B,,2 | x4 A,2 x2 | x8 | A,2 x2 A,2 A,2 | %13
 x8 | x8 | x8 | E,2 x6 | x6 |] x8 |] %19

